X: 1
T: Matt's Favourite
C: by Jerry Holland
S: MS by Barbara McOwen
R: strathspey
Z: 2019 John Chambers <jc:trillian.mit.edu>
M: C
L: 1/8
K: Ador
G |:\
"Am"EAAc B2cA | "Am"BAAg feea | "Am"EAAc B2Ac | "G"BGGA BcdD | "Am"EAAc B2Ac |
"Am"BAAg feef | "G"gfgd e2eg | "Em"BGBc dBGB :] "Am"EA~A2 fA~A2 | "Am"gA~A2 aA~A2 |
"Am"EAfA "D"gAaA | "G"fgdg "Em"BGGD | "Am"EA~A2 fA~A2 | "Am"gA~A2 aA~A2 | "Am"EAfA "D"gAaA | "G"fgdg "Em"BGG"d.S."D |]
